brandFactory_export/2.Regular/Flecha arriba izquierda_2Regular.svg

<?xml version="1.0" encoding="UTF-8"?>
<svg width="24px" height="24px" viewBox="0 0 24 24" version="1.1" xmlns="http://www.w3.org/2000/svg" xmlns:xlink="http://www.w3.org/1999/xlink">
    <title>2.Regular/Flecha arriba izquierda_2Regular</title>
    <g id="Symbols" stroke="none" stroke-width="1" fill="none" fill-rule="evenodd">
        <g id="2.Regular/Flecha-arriba-izquierda_2Regular" fill="#5CB615" fill-rule="nonzero">
            <path d="M14.5714286,22.3932773 C14.4840336,22.3932773 14.4,22.3831933 14.312605,22.3663866 C13.9092437,22.2789916 13.5865546,22.0033613 13.3243697,21.7411765 L13.307563,21.7243697 L7.53277311,15.5865546 L4.43697479,18.6823529 L4.42689076,18.692437 C4.0302521,19.0722689 3.35462185,19.1831933 2.82016807,18.9546218 C2.32268908,18.7394958 2.02707243,18.2722689 2.0302521,17.7008403 L2.0302521,3.19663866 C2.00672269,2.8605042 2.11428571,2.55798319 2.33613445,2.33613445 C2.55798319,2.11428571 2.8605042,2.00672269 3.19663866,2.03361345 L17.7714286,2.04033613 C18.2823529,2.03697479 18.7092437,2.3092437 18.9176471,2.77647059 C19.1630252,3.32436975 19.0521008,4.03361345 18.6588235,4.46386555 C18.6521008,4.47058824 18.6453782,4.47731092 18.6420168,4.48403361 L15.7815126,7.33445378 L21.6672269,13.0823529 L21.6739496,13.0890756 C22.1142857,13.5294118 22.3327731,13.9966387 22.3262009,14.4840336 C22.3193277,14.9579832 22.0941176,15.4184874 21.6537815,15.8554622 L15.6235294,21.912605 L15.6033613,21.9327731 C15.2705882,22.2386555 14.9210084,22.3932773 14.5714286,22.3932773 L14.5714286,22.3932773 Z M14.2386555,20.8336134 C14.4436975,21.0352941 14.5344538,21.0857143 14.5680672,21.0991597 C14.5882353,21.0890756 14.6386555,21.0621849 14.7226891,20.9882353 L20.7428571,14.9411765 C20.9310924,14.7529412 21.0352941,14.5815126 21.0387117,14.4605042 C21.0420168,14.3092437 20.8941176,14.1277311 20.7663866,14.0033613 L14.8,8.17478992 L14.7932773,8.16806723 C14.3327731,7.70756303 14.3226891,6.96806723 14.7731092,6.51764706 L17.7109244,3.57983193 C17.7478992,3.52941176 17.7647059,3.40168067 17.7478992,3.32436975 L3.3210084,3.31764706 L3.3210084,17.7008403 C3.3210084,17.7310924 3.32436975,17.7512605 3.32773109,17.7613445 C3.37142857,17.7848739 3.49243697,17.7815126 3.5394958,17.7512605 L6.72268908,14.5680672 C6.94117647,14.3495798 7.25042017,14.2285714 7.56302521,14.2386555 C7.86890756,14.2487395 8.15462185,14.3731092 8.37310924,14.5915966 L8.38655462,14.605042 L14.2386555,20.8336134 L14.2386555,20.8336134 Z" id="Flecha-arriba-izquierda_2Regular"></path>
        </g>
    </g>
</svg>

<svg width="24" height="24" viewBox="0 0 24 24" xmlns="http://www.w3.org/2000/svg"><path d="M14.571 22.393c-.087 0-.171-.01-.258-.027-.404-.087-.726-.363-.989-.625l-.016-.017-5.775-6.137-3.096 3.095-.01.01c-.397.38-1.072.491-1.607.263-.497-.216-.793-.683-.79-1.254V3.197a1.082 1.082 0 01.306-.86c.222-.223.525-.33.86-.303l14.575.006a1.21 1.21 0 011.147.736c.245.548.134 1.258-.26 1.688a.09.09 0 00-.016.02l-2.86 2.85 5.885 5.748.007.007c.44.44.659.908.652 1.395-.007.474-.232.934-.672 1.371l-6.03 6.058-.02.02c-.333.306-.683.46-1.033.46zm-.332-1.56c.205.202.295.253.33.266.02-.01.07-.037.154-.11l6.02-6.048c.188-.188.292-.36.296-.48.003-.152-.145-.333-.273-.458L14.8 8.175l-.007-.007c-.46-.46-.47-1.2-.02-1.65l2.938-2.938c.037-.05.054-.178.037-.256L3.32 3.318V17.7c0 .03.003.05.007.06a.29.29 0 00.211-.01l3.184-3.183c.218-.218.527-.34.84-.33.306.01.592.135.81.354l.014.013 5.852 6.229z" fill="#5CB615" fill-rule="nonzero"/></svg>
